X: 23215
T: Leaky Roof, The
R: reel
M: 4/4
K: Dmajor
dc|:B~F3 AFEF|DEFA d3c|Beed efed|Beed e3g|
fBBA B3A|FABc d3c|B~F3 AFEF|1 GBAF D3A:|2 GBAF D3e||
|:fddc d3e|f~d3 fgaf|e~A3 egfg|e~A3 efge|
fdcd B3A|FABc d3c|B~F3 AFEF|1 GBAF D3e:|2 GBAF D3A||

